X:11607
T:Termer Walzer  C (wz00947)
S:Hanny Christen. Bd.VI  Fribourg, Welschland, Wallis, Bern I. S.269 (wz00947) orig. C-Dur
S:Walliser (Volks-)Tänze. S.234-276
%%MIDI program 21
R:waltz
O:Switzerland
M:3/4
L:1/8
K:C %%MIDI gchordon
cd |: "C"eG eG ce | "G7"dG dG de | fG fG df | "C"eG eG cd | eG eG ce | 
"G7"dG dG de | fG fG Bd |1 "C"c2z2cd :|2 "C"c2z2ga |: "G"bd bd gb | "D7"ad ad ab | c'd c'd ac' | 
"G"bd bd ga | bd bd gb | "D7"ad ad ab | c'a ^fd ef |1 "G"g2z2ga :|2 "G"g2z2z2 |]  
W:
W: cf. Termer Schottisch (st00934) Bd. VI, p256
% wz00947

